X: 6
M:2/4
L:1/16
K:D
vD2F2A2d2 | {g}fefb afdf | gdBg fdAf | efge cAGE |
|:vafdf AdFA | bgdg BdGB | afdf AdFA | gecA gecA |
afdf AdFA | bgdg BdGB | cbag fedc | d2f2d2 z2 :|


